X:11272
T:Mouth of the Tobique
R:Reel
M:2/4
L:1/16
K:G
(3DEF |GFGA Bded|BdBG DGBG|AGFE DFAc|BdBG DG(3DEF |
GFGA Bded|BdBG DGBG|AGFE DFAc|BGGG G2:|
|:ef|gfga gfeg|fdAd fagf|eGFE DFAc|BGBc d2ef|
gfga gfeg|fdAd fagf|eGFE DFAc|BGGG G2:|
